X: 24790
T: Maggie Cameron
R: strathspey
M: 4/4
K: Amixolydian
(3faf|"A"{ef}[e2e2] {cd}c>A c<e{cd}c>A|e>cA<c {c}[e2e2] (3faf|{ef}[e2e2] {cd}c>A c<e{cd}c>A|"G"d>BG<B {B}[d2D2] (3faf|
"A"{ef}[e2e2] {cd}c>A c<e{cd}c>A|e>cA<c e>A a/^g/f|e>A{cd}c>A c<e{cd}c>A|"G"d>BG<B {B}[d2D2] (3faf||
"A"e<ac>a e>ac>a|g/f/e a<c {ef}[e2e2] e<f|e<ac>d "Em"e>f{a}g>e|"G"(3dcB g<B {B}[d2D2] (3faf|
"A"e<ac>a e>ac>a|g/f/e a<c {ef}[e2e2] (3efg|(3agf "Em"{gf}g>e "D"(3fed "A"(3edc|"G"(3dcB g<B {B}[d2D2] (3faf||
"A"{ef}e>Ac>e A/A/A c>e|A/A/A c>e A/A/A a<f|{g}f>ec>e A/A/A c>e|"G"(3dcB g<B {B}[d2D2] (3faf|
"A"{ef}e>Ac>e A/A/A c>e|A/A/A c>e A/A/A a/^g/f|e<ac>e A/A/A c>e|"G"(3dcB g<B {B}[d2D2] (3faf||
"A"e<a{b}a>g {fg}f>ea>e|c>ea>e (3cde "D"{fg}f2|"A"e<a{b}a>g (3fbf (3edc|"G"(3dcB g<B {B}[d2D2] (3faf|
"A"e<a{b}a>g "D"{fg}f>ef<b|"A"{ab}a>f{ef}e>d (3cde (3efg|(3agf "Em"{gf}g>e "D"(3fed "A"(3edc|"G"(3dcB g<B {B}[d2D2]||

